src/WeatherTwentyOne/Resources/Images/fluent_weather_partly_cloudy_night_20_filled.svg

<svg width="40" height="40" viewBox="0 0 40 40" fill="none" xmlns="http://www.w3.org/2000/svg">
<path d="M22.0001 14C26.9301 14 29.7261 17.148 30.1321 20.948H30.2561C33.4281 20.948 36.0001 23.422 36.0001 26.474C36.0001 29.526 33.4281 32 30.2561 32H13.7441C10.5721 32 8.0001 29.526 8.0001 26.474C8.0001 23.534 10.3841 21.132 13.3941 20.958L13.8681 20.948C14.2781 17.122 17.0701 14 22.0001 14ZM11.6861 6C13.0209 6.07239 14.3196 6.45961 15.4761 7.13C16.4416 7.68558 17.2882 8.42604 17.9673 9.30904C18.6465 10.192 19.1449 11.2002 19.4341 12.276C15.9861 13.036 13.5081 15.356 12.4961 18.558L12.3681 19L12.2761 19.374L11.9461 19.434C10.203 19.7919 8.64362 20.7573 7.5461 22.158C6.2094 21.5193 5.06335 20.5415 4.2221 19.322C4.11319 19.1633 4.04212 18.9818 4.01437 18.7914C3.98662 18.601 4.00293 18.4067 4.06204 18.2236C4.12116 18.0404 4.2215 17.8733 4.35535 17.735C4.4892 17.5968 4.65298 17.491 4.8341 17.426C7.5861 16.442 9.0681 15.334 9.9141 13.714C10.8401 11.948 11.0121 10.074 10.3981 7.554C10.1981 6.736 10.8441 5.956 11.6861 6.002V6Z" fill="url(#paint0_linear)"/>
<defs>
<linearGradient id="paint0_linear" x1="9.46548" y1="10.7006" x2="24.3586" y2="27.883" gradientUnits="userSpaceOnUse">
<stop offset="0.10243" stop-color="#28C2D1"/>
<stop offset="0.925347" stop-color="#4931DE"/>
</linearGradient>
</defs>
</svg>

<svg width="40" height="40" fill="none" xmlns="http://www.w3.org/2000/svg">
    <path
        d="M22 14c4.93 0 7.726 3.148 8.132 6.948h.124c3.172 0 5.744 2.474 5.744 5.526C36 29.526 33.428 32 30.256 32H13.744C10.572 32 8 29.526 8 26.474c0-2.94 2.384-5.342 5.394-5.516l.474-.01C14.278 17.122 17.07 14 22 14zM11.686 6a8.472 8.472 0 013.79 1.13 8.476 8.476 0 013.958 5.146c-3.448.76-5.926 3.08-6.938 6.282l-.128.442-.092.374-.33.06a7.508 7.508 0 00-4.4 2.724 8.48 8.48 0 01-3.324-2.836 1.258 1.258 0 01.612-1.896c2.752-.984 4.234-2.092 5.08-3.712.926-1.766 1.098-3.64.484-6.16a1.255 1.255 0 011.288-1.552V6z"
        fill="url(#prefix__paint0_linear)" />
    <defs>
        <linearGradient id="prefix__paint0_linear" x1="9.465" y1="10.701" x2="24.359" y2="27.883"
            gradientUnits="userSpaceOnUse">
            <stop offset=".102" stop-color="#28C2D1" />
            <stop offset=".925" stop-color="#4931DE" />
        </linearGradient>
    </defs>
</svg>
